X:1
T:Title
%%score { ( 1 3 5 ) | ( 2 4 ) }
L:1/8
M:4/4
K:A
V:1 treble nm="Grand Piano"
V:3 treble 
V:5 treble 
V:2 bass 
V:4 bass 
V:1
 z4 z2[Q:1/4=100] C>D | [CE]4 z4 | z2 [Ec]4 z2 | [EAe]2 [Ad]2 [F^Ad]2 [Fc]2 | [DF]6 z2 | %5
 [DG]2 B2 e2 d2 | z2 A4 z2 | [^DF]2 B2 B2 c2 | B6 z2 | d2 B2 G2 F2 | F2 z2 C2 Bc | d4 z4 | E6 z2 | %13
 F3 G A2 [FB]2 | [^Ec]6 G2 | A3 B c2 ^d2 |[M:3/4] [Ge]6 |[M:1/4] E2 |[M:4/4] [Ec]2 c2 =c2 ^c2 | %19
 [CA]6 z2 | [Fd]2 [Fd]2 [Ec]2 [Ed]2 | [DB]6 z2 | [DG]2 [G,F]2 [DG]2 [DF]>G | %23
[M:9/8] [CF]>E[CA]- [CA]/[DB]/ [Ec]2- [Ec] [Fc]2 |[M:4/4] [EFc]2 [DFd]2 [EB]3 [CEA] | %25
[M:3/4] [CEA]6[K:bass] |] %26
V:2
 z4 z2 A,>B, | z2 E,2 z4 | A,,2 [E,A,]2 z2 [=G,,=G,]2 | [F,,F,]2 [F,A,D]2 ^A,,2 [F,A,E]2 | %4
 B,,2 F,2 F,2 D>D | B,,2 [E,G,D]2 E,,2 [E,G,B,]2 | A,,2 [E,A,C]2 [E,A,]2 z G | %7
 B,,2 [F,A,B,^D]2 [F,A,B,D]2 [F,A,B,D]2 | z2 [^E,A,]2 [=E,G,]2 z2 | B,,2 [E,G,D]2 E,,2 [E,G,D]2 | %10
 A,,2 [E,A,C]2 [E,A,]2 z2 | B,,2 [E,G,]2 E,,2 [E,G,D]2 | A,,2 [E,A,]2 [E,A,]2 C,2 | %13
 F,3 G, A,2 [D,F,]2 | [C,G,]6 G,2 | A,3 B,[K:treble] C2 [B,A]2 |[M:3/4][K:bass] [E,B,]6 | %17
[M:1/4] C2 |[M:4/4] A,,2 [E,A,E]2 [^E,A,^D]2 [=E,A,E]2 | A,,2 E,>E, E,2 D2 | %20
 B,,2 [F,B,]2 ^A,,2 [F,^A,]2 | B,,2 F,>F, F,2 D2 | B,,2 z z/ E/ E,,2 [E,G,]2 | %23
[M:9/8] [A,,A,]2 [A,,A,]- [A,,A,]/[G,,G,]/ [F,,F,]2- [F,,F,] [F,^A,E]2 | %24
[M:4/4] [B,,^A,]2 [B,,B,]2 [E,G,D]3 [A,,E,=A,] |[M:3/4] [A,,E,A,]2 E,,2 A,,,2 |] %26
V:3
 x8 | z2 A,2 [CE]2 [A,CA]2 | [Ec]2 z2 [E,A,]2 [EB]c | x8 | z2 B,2 B,2 F>=G | x8 | c2 z2 C2 .[EA]2 | %7
 x8 | z2 ^D2 =D2 Bc | x8 | z2 E4 z2 | z2 z B G2 F2 | z2 C2 C2 C2 | x8 | x8 | x8 |[M:3/4] x6 | %17
[M:1/4] x2 |[M:4/4] x8 | z2 A,>A, A,2 F2 | x8 | z2 B,>B, B,2 F2 | x8 |[M:9/8] x9 |[M:4/4] x8 | %25
[M:3/4] z2[K:bass] E,2 A,,2 |] %26
V:4
 x8 | A,,2 z C E,,2 E,2 | x8 | x8 | x8 | x8 | z4 z2 [C,A,]2 | x8 | x8 | x8 | x8 | x8 | x8 | x8 | %14
 x8 | x4[K:treble] x4 |[M:3/4][K:bass] x6 |[M:1/4] x2 |[M:4/4] x8 | x8 | x8 | x8 | z2 E,2 z4 | %23
[M:9/8] x9 |[M:4/4] x8 |[M:3/4] x6 |] %26
V:5
 x8 | x8 | x8 | x8 | x8 | x8 | x8 | x8 | x8 | x8 | x8 | z2 D2 z4 | x8 | x8 | x8 | x8 |[M:3/4] x6 | %17
[M:1/4] x2 |[M:4/4] x8 | x8 | x8 | x8 | x8 |[M:9/8] x9 |[M:4/4] x8 |[M:3/4] x2[K:bass] x4 |] %26

